usr/share/icons/biglinux-icons-material-dark/16/actions/im-invisible-user.svg

<svg xmlns="http://www.w3.org/2000/svg" viewBox="0 0 16 16">
<defs id="defs3051">
<style id="current-color-scheme" type="text/css">
.ColorScheme-Text{color:#dedede}
</style>
</defs>
<path d="M8 2a3 3 0 0 0-3 3 3 3 0 0 0 3 3 3 3 0 0 0 3-3 3 3 0 0 0-3-3m1.293 1 .707.707L6.707 7 6 6.293zM8 9a5 4.5 0 0 0-5 4.5 5 4.5 0 0 0 .033.5h9.93a5 4.5 0 0 0 .037-.5A5 4.5 0 0 0 8 9m0 1a4 3.5 0 0 1 3.955 3h-7.91A4 3.5 0 0 1 8 10" class="ColorScheme-Text" style="fill:currentColor;fill-opacity:1;stroke:none"/>
<path d="m9.3 3 .707.707L6.714 7l-.707-.707Z" style="fill:#fff"/>
</svg>

<svg xmlns="http://www.w3.org/2000/svg" viewBox="0 0 16 16">
  <defs id="defs3051">
    <style type="text/css" id="current-color-scheme">
      .ColorScheme-Text {
        color:#dedede;
      }
      </style>
  </defs>
  <path style="fill:currentColor;fill-opacity:1;stroke:none" 
     d="M 8 2 A 3 3 0 0 0 5 5 A 3 3 0 0 0 8 8 A 3 3 0 0 0 11 5 A 3 3 0 0 0 8 2 z M 9.2929688 3 L 10 3.7070312 L 6.7070312 7 L 6 6.2929688 L 9.2929688 3 z M 8 9 A 5 4.5 0 0 0 3 13.5 A 5 4.5 0 0 0 3.0332031 14 L 12.962891 14 A 5 4.5 0 0 0 13 13.5 A 5 4.5 0 0 0 8 9 z M 8 10 A 4 3.5 0 0 1 11.955078 13 L 4.0449219 13 A 4 3.5 0 0 1 8 10 z "
     class="ColorScheme-Text"
     />
  <path
     style="fill:#ffffff"
     d="M 9.3,3 10.007,3.707 6.714,7 6.007,6.293 Z" />
</svg>
